public/assets/icons/tabler/mug.svg

<svg xmlns="http://www.w3.org/2000/svg" class="icon icon-tabler icon-tabler-mug"  viewBox="0 0 24 24" stroke-width="1.5" stroke="currentColor" fill="none" stroke-linecap="round" stroke-linejoin="round">
  <path stroke="none" d="M0 0h24v24H0z" fill="none"/>
  <path d="M4.083 5h10.834a1.08 1.08 0 0 1 1.083 1.077v8.615c0 2.38 -1.94 4.308 -4.333 4.308h-4.334c-2.393 0 -4.333 -1.929 -4.333 -4.308v-8.615a1.08 1.08 0 0 1 1.083 -1.077" />
  <path d="M16 8h2.5c1.38 0 2.5 1.045 2.5 2.333v2.334c0 1.288 -1.12 2.333 -2.5 2.333h-2.5" />
</svg>

<svg xmlns="http://www.w3.org/2000/svg" viewBox="0 0 24 24"><path fill="none" stroke="currentColor" stroke-linecap="round" stroke-linejoin="round" stroke-width="2" d="M4.083 5h10.834A1.08 1.08 0 0 1 16 6.077v8.615C16 17.072 14.06 19 11.667 19H7.333C4.94 19 3 17.071 3 14.692V6.077A1.08 1.08 0 0 1 4.083 5M16 8h2.5c1.38 0 2.5 1.045 2.5 2.333v2.334C21 13.955 19.88 15 18.5 15H16"/></svg>
